X:7766
T:Unknown tune (Sweet Cream and Peaches?)
O:england
M:6/8
L:1/8
S:John W. Summers
K:D
dAd faa|Add fga|aba gfe|{fg}fed {cd}cBA|
dAd faa|Add fga|1aba gfe|fed cAc|d2d d3:|
2bag fed|cAc d2B|:
A2F EDE|AFD A,CE|D2F/2G/2 A2A|def {fg}fef|edB {Bc}BAB|
A2F {EF}EDE|AFD EDE|D2F A2A|def {fg}fed|Ace d3:|


